X:18
T:Reel de Siamois
C:Andr\'e Marchand
Z:robin.beech@mcgill.ca
S:Tuq: Nicolas Williams, Greg Brown, Yann Falquet
R:reel
M:4/4
L:1/8
K:G
dBcB GAB2 | B2AG A3D | DEED EFGA | BAGB AFDB   |
dBcB GAB2 | B2AG A3D | DEFG ABBA |1 BGAF G3B :|2 BGAF G3A |:
 BGG/G/G FGAG | BGG/G/G FGAB | cAA/A/A GDA/A/A | cAA/A/A BAGA |
BGG/G/G FGAG | BGAG FEDB | c2cB GABG |1 EGFA D2DG :|2 EGFA D4 |]

